X:1
T:Title
%%score { ( 1 4 ) | ( 2 3 ) }
L:1/8
M:6/8
K:Db
V:1 treble nm="Grand Piano"
V:4 treble 
V:2 bass 
V:3 bass 
V:1
 z3 z2[Q:1/4=87] [FA] | [Fd][Ac][GB] [FA][GB][DF] | [FA]3 [EG]2 [EG] | [EG][=DF][EG] [Gc]2 [CGB] | %4
[M:5/8] [DFA]-[DFA]- [DFA]3 |[M:1/8] F |[M:3/4] F2 FF GA | B3 G2 G | GF E F2 [CE] | %9
[M:5/8] D-D- D3 |[M:1/8] A |[M:3/4] ee ee dc | d-[Ad-] [Gd-] [Fd]2 [DFA] | %13
 [DGB][DGB] [DGB]B z [D=Gd] | e6 | f4 z2 |[M:7/8] d3 z z z2 | %17
[M:3/4] AA AA Bc[Q:1/4=86][Q:1/4=84][Q:1/4=83][Q:1/4=82][Q:1/4=81][Q:1/4=79][Q:1/4=78][Q:1/4=77][Q:1/4=75][Q:1/4=74][Q:1/4=73][Q:1/4=72][Q:1/4=70][Q:1/4=69][Q:1/4=68][Q:1/4=67] | %18
[M:5/8] d-d- d3 |] %19
V:2
 z3 z2 [D,D] | [D,D]2 [D,D] [D,D]2 [D,A,] | [D,C]3 [A,C]2 [A,C] | [A,,A,]2 [A,,A,] [A,,A,]2 A,, | %4
[M:5/8] D,-D,- D,3 |[M:1/8] [D,A,D] |[M:3/4] [D,A,D]2 [D,A,D]A,- [E,A,C][F,A,D] | %7
 [G,D]3 [G,B,D]2 [G,B,E] | [E,B,E][F,A,D] [G,B,D] [A,D]2 [A,,G,] |[M:5/8] [D,F,]-[D,F,]- [D,F,]3 | %10
[M:1/8] A, |[M:3/4][K:treble] [A,CG][A,CG] [A,CG][A,CG] [A,DF][A,EG] | z C B, A,2 D, | %13
 G,G, .G,2[K:treble] cE, | [A,CG][A,C] [A,C] [A,C]2 [A,CG] | [D,D][D,D] [D,D][D,D] [E,C][F,_C] | %16
[M:7/8] [G,B,G][G,B,][G,B,][K:treble] [G,DG]3 [=G,D_F] | %17
[M:3/4] [A,DF][A,DF] [A,DF][A,CG] [A,DG][A,EG] |[M:5/8][K:bass] z B,B, A,2 |] %19
V:3
 x6 | x6 | x6 | x6 |[M:5/8] x5 |[M:1/8] x |[M:3/4] z2 z [D,D] z2 | x6 | x6 |[M:5/8] x5 |[M:1/8] x | %11
[M:3/4][K:treble] x6 | D,6 | z2 z .E,3[K:treble] | x6 | x6 |[M:7/8] x3[K:treble] x4 |[M:3/4] x6 | %18
[M:5/8][K:bass] D,-D,- D,3 |] %19
V:4
 x6 | x6 | x6 | x6 |[M:5/8] x5 |[M:1/8] x |[M:3/4] x6 | x6 | x6 |[M:5/8] x5 |[M:1/8] x | %11
[M:3/4] x6 | .[DF]2 z2 z2 | z2 z .[D=G]3 | z G G G2 A | AA AA [Ae][Ad] |[M:7/8] z GG B3 B | %17
[M:3/4] x6 |[M:5/8] [DF]GG F2 |] %19

